svgs/regular/gift-card.svg

<svg xmlns="http://www.w3.org/2000/svg" viewBox="0 0 576 512"><!--! Font Awesome Pro 6.3.0 by @fontawesome - https://fontawesome.com License - https://fontawesome.com/license (Commercial License) Copyright 2023 Fonticons, Inc. --><path d="M353.5 68.8L318.7 128H320h72c22.1 0 40-17.9 40-40s-17.9-40-40-40h-2.2c-14.9 0-28.8 7.9-36.3 20.8zM288 197.5l-61.6 73.9c-8.5 10.2-23.6 11.6-33.8 3.1s-11.6-23.6-3.1-33.8L243.4 176H184 64c-8.8 0-16 7.2-16 16V320H528V192c0-8.8-7.2-16-16-16H392 332.6l53.9 64.6c8.5 10.2 7.1 25.3-3.1 33.8s-25.3 7.1-33.8-3.1L288 197.5zM48 384v64c0 8.8 7.2 16 16 16H512c8.8 0 16-7.2 16-16V384H48zM256 128h1.3L222.5 68.8C214.9 55.9 201.1 48 186.2 48H184c-22.1 0-40 17.9-40 40s17.9 40 40 40h72zm7.9-83.6l24.1 41 24.1-41C328.3 16.9 357.9 0 389.8 0H392c48.6 0 88 39.4 88 88c0 14.4-3.5 28-9.6 40H512c35.3 0 64 28.7 64 64V448c0 35.3-28.7 64-64 64H64c-35.3 0-64-28.7-64-64V192c0-35.3 28.7-64 64-64h41.6C99.5 116 96 102.4 96 88c0-48.6 39.4-88 88-88h2.2c31.9 0 61.5 16.9 77.7 44.4z"/></svg>

<svg xmlns="http://www.w3.org/2000/svg" viewBox="0 0 576 512"><!--! Font Awesome Pro 6.2.0 by @fontawesome - https://fontawesome.com License - https://fontawesome.com/license (Commercial License) Copyright 2022 Fonticons, Inc. --><path d="M263.9 44.45L288 85.46L312.1 44.45C328.3 16.91 357.9 0 389.8 0H392C440.6 0 480 39.4 480 88C480 102.4 476.5 115.1 470.4 128H512C547.3 128 576 156.7 576 192V448C576 483.3 547.3 512 512 512H64C28.65 512 0 483.3 0 448V192C0 156.7 28.65 128 64 128H105.6C99.46 115.1 96 102.4 96 88C96 39.4 135.4 0 184 0H186.2C218.1 0 247.7 16.91 263.9 44.45zM318.7 128H392C414.1 128 432 110.1 432 88C432 65.91 414.1 48 392 48H389.8C374.9 48 361.1 55.91 353.5 68.78L318.7 128zM288 197.5L226.4 271.4C217.1 281.5 202.8 282.9 192.6 274.4C182.5 265.1 181.1 250.8 189.6 240.6L243.4 176H64C55.16 176 48 183.2 48 192V320H528V192C528 183.2 520.8 176 512 176H332.6L386.4 240.6C394.9 250.8 393.5 265.1 383.4 274.4C373.2 282.9 358 281.5 349.6 271.4L288 197.5zM48 384V448C48 456.8 55.16 464 64 464H512C520.8 464 528 456.8 528 448V384H48zM257.3 128L222.5 68.78C214.9 55.91 201.1 48 186.2 48H184C161.9 48 144 65.91 144 88C144 110.1 161.9 128 184 128H257.3z"/></svg>
